icon/pk/popcorn.svg

<svg viewBox="0 0 48 48" fill="none" xmlns="http://www.w3.org/2000/svg" height="1em" width="1em">
  <path d="M33.6961 40.8677L39 17H7L12.3039 40.8677C12.6376 42.3694 12.8045 43.1202 13.3529 43.5601C13.9013 44 14.6704 44 16.2087 44H29.7913C31.3296 44 32.0987 44 32.6471 43.5601C33.1955 43.1202 33.3624 42.3694 33.6961 40.8677Z" fill="#2F88FF" stroke="black" stroke-width="4" stroke-linecap="round" stroke-linejoin="round"/>
  <path d="M27 44L28 17" stroke="white" stroke-width="4" stroke-linecap="round" stroke-linejoin="round"/>
  <path d="M19 44L18 17" stroke="white" stroke-width="4" stroke-linecap="round" stroke-linejoin="round"/>
  <path d="M31 44H15" stroke="black" stroke-width="4" stroke-linecap="round" stroke-linejoin="round"/>
  <path d="M31 17H15" stroke="black" stroke-width="4" stroke-linecap="round" stroke-linejoin="round"/>
  <path d="M11.0004 16.9999C11.0004 16.9999 10.0004 13.9999 11.5004 12.4999C13.0004 10.9999 16.0004 11.4999 16.0004 11.4999C16.0004 11.4999 16.0004 8.4999 18.0004 7.4999C20.0004 6.4999 23.0004 7.99988 23.0004 7.99988C23.0004 7.99988 25.0004 4.64271 28.0004 5.49992C31.0004 6.35713 31.0004 9.99994 31.0004 9.99994C31.0004 9.99994 33.5004 9.99998 35.0004 11.9999C36.5004 13.9999 35.0004 16.9999 35.0004 16.9999" stroke="black" stroke-width="4" stroke-linecap="round" stroke-linejoin="round"/>
</svg>

<svg width="48" height="48" fill="none" xmlns="http://www.w3.org/2000/svg"><path d="M33.696 40.868 39 17H7l5.304 23.868c.334 1.501.5 2.252 1.049 2.692.548.44 1.317.44 2.856.44H29.79c1.539 0 2.308 0 2.856-.44.549-.44.715-1.19 1.05-2.692Z" fill="#2F88FF" stroke="#000" stroke-width="4" stroke-linecap="round" stroke-linejoin="round"/><path d="m27 44 1-27M19 44l-1-27" stroke="#fff" stroke-width="4" stroke-linecap="round" stroke-linejoin="round"/><path d="M31 44H15M31 17H15M11 17s-1-3 .5-4.5 4.5-1 4.5-1 0-3 2-4 5 .5 5 .5 2-3.357 5-2.5c3 .857 3 4.5 3 4.5s2.5 0 4 2 0 5 0 5" stroke="#000" stroke-width="4" stroke-linecap="round" stroke-linejoin="round"/></svg>
